modules/map-icons/icons/campground.svg

<svg version="1.2" baseProfile="tiny" xmlns="http://www.w3.org/2000/svg" width="50" height="50" viewBox="0 0 50 50" overflow="inherit"><path d="M25 6c-1.263 0-1.834.616-2.21 1.286l-15.71 29.572h-3.395c-1.482 0-2.685 1.145-2.685 2.571 0 1.423 1.203 2.57 2.685 2.57h42.632c1.481 0 2.685-1.147 2.685-2.57 0-1.427-1.203-2.571-2.685-2.571h-3.397l-15.709-29.573c-.377-.669-.947-1.285-2.211-1.285zm0 12.857l8.842 18.001h-17.684l8.842-18.001z"/></svg>

<svg version="1.2" baseProfile="tiny" xmlns="http://www.w3.org/2000/svg" width="50" height="50" overflow="inherit"><path d="M25 6c-1.263 0-1.834.616-2.21 1.286L7.08 36.858H3.685C2.203 36.858 1 38.003 1 39.429c0 1.423 1.203 2.57 2.685 2.57h42.632c1.481 0 2.685-1.147 2.685-2.57 0-1.427-1.203-2.571-2.685-2.571H42.92L27.211 7.285C26.834 6.616 26.264 6 25 6zm0 12.857l8.842 18.001H16.158L25 18.857z"/></svg>
